X:1
T:Ahwahnee, 76.76 D
T:Ahwahnee, 76.76 D
T:Jackson Leslie, 1917
T:Public Domain Courtesy of the Cyber Hymnal™
C:Jackson Leslie, 1917
Z:Public Domain
Z:Courtesy of the Cyber Hymnal™
%%score ( 1 2 ) ( 3 4 )
L:1/8
Q:1/4=90
M:6/8
K:F
V:1 treble 
V:2 treble 
V:3 bass 
V:4 bass 
V:1
 [FA]>[F^G][FA] [FB]2 [FA] | [FA]3 [EG]3 | [GB]>[^FA][GB] [Ac]2 [GB] | [FA]3- [FA]2 z | %4
 [FA]>[F^G][FA] [FB]2 [FA] | [Fc]3 !fermata![FB]3 | [FA]>[FB][FA] [EA]2 [CG] | [CF]3- [CF]2 z | %8
 [FB]>[FA][FB] [Fd]2 [FB] | [FA]3 [Fc]3 | [Ec]>[Ec][Ec] (=BA)[FB] | [Ec]3- [Ec] z | %12
 [FA]>[F^G][FA] [FB]2 [FA] | [Fc]3 !fermata![FB]3 | [FA]>[FB][FA] [EA]2 [CG] | [CF]3- [CF]2 z |] %16
V:2
 x6 | x6 | x6 | x6 | x6 | x6 | x6 | x6 | x6 | x6 | x3 F2 x | x5 | x6 | x6 | x6 | x6 |] %16
V:3
 [F,C]>[=F,=B,][F,C] [F,D]2 [F,C] | [C,C]3 [C,C]3 | [C,C]>[C,C][C,C] [C,C]2 [C,C] | %3
 [F,C]3- [F,C]2 z | [F,C]>[F,=B,][F,C] [F,D]2 [F,C] | [A,,_E]3 [B,,D]3 | %6
 [C,C]>[C,D][C,C] [C,C]2 [C,B,] | [F,A,]3- [F,A,]2 z | [B,,D]>[B,,^C][B,,D] [B,,B,]2 [B,,D] | %9
 [F,C]3 [F,A,]3 | G,>G,G, [G,,G,]2 [G,,G,] | [C,G,]3- [C,G,] z | [F,C]>[F,=B,][F,C] [F,D]2 [F,C] | %13
 [A,,_E]3 [B,,D]3 | [C,C]>[C,D][C,C] [C,C]2 [C,B,] | [F,A,]3- [F,A,]2 z |] %16
V:4
 x6 | x6 | x6 | x6 | x6 | x6 | x6 | x6 | x6 | x6 | G,>G,G, x3 | x5 | x6 | x6 | x6 | x6 |] %16

